16x16/apps/chrome-efobjgdlbfdfckkpghggmiephjgicmak-Default.svg

<svg height="16" width="16" xmlns="http://www.w3.org/2000/svg"><rect fill="#5362ca" height="15" rx=".75" width="15" x="1" y="1"/><path d="m3.67 7.963 10.08 2.212v.601l-.375.474s-3.319.174-3.375.174l-.44.576h-5.437l-.498-.75z" fill="#61d3e0"/><g fill="#fccf42"><path d="m3.785 4-.785.8v6.4l.785.801h4.715v-1h-4.5v-6.001h9v1.5h.363l.637.594v-2.294l-.785-.8zm-1.66 9 .75 1h6.227l-.602-.561v-.439h-5.625z"/><path d="m9.833 7-.833.778v5.8"/></g></svg>

<svg xmlns="http://www.w3.org/2000/svg" width="16" height="16" version="1"><rect style="fill:#5362ca" width="15" height="15" x="1" y="1" rx=".75" ry=".75"/><path style="fill:#61d3e0" d="m3.67 7.963 10.08 2.212v.601l-.375.474s-3.319.174-3.375.174L9.56 12H4.123l-.498-.75z"/><path style="fill:#fccf42" d="M3.785 4 3 4.8V11.2l.785.801H8.5v-1H4V5h9v1.5h.363l.637.594V4.8L13.215 4zm-1.66 9 .75 1h6.227l-.602-.561V13H2.875z"/><path style="fill:#fccf42" d="M9.833 7 9 7.778v5.8b9cbel.833.778h3.334l.833-.778V7.778L13.167 7zM10 8h3v3h-3zm0 4h3v1h-3zm1.083.345v.388h.834v-.388z"/></svg>
